asset/img/7422531_css3_css_file_development_icon.svg

<?xml version="1.0" ?><svg viewBox="0 0 40 40" xmlns="http://www.w3.org/2000/svg"><g id="CSS3"><path d="M32.34,6,30.1,31.2,20,34,9.9,31.2,7.66,6ZM13.22,22l.43,4.86L20,28.65h0l6.33-1.75,1.4-15.75H12.25l.28,3.09H24.34l-.28,3.17H12.81l.27,3.09H23.8l-.36,4L20,25.44h0l-3.45-.93L16.32,22Z"/></g></svg>

<?xml version="1.0" encoding="UTF-8" standalone="no"?>
<!DOCTYPE svg PUBLIC "-//W3C//DTD SVG 1.1//EN" "http://www.w3.org/Graphics/SVG/1.1/DTD/svg11.dtd">
<svg width="100%" height="100%" viewBox="0 0 40 40" version="1.1" xmlns="http://www.w3.org/2000/svg" xmlns:xlink="http://www.w3.org/1999/xlink" xml:space="preserve" xmlns:serif="http://www.serif.com/" style="fill-rule:evenodd;clip-rule:evenodd;stroke-linejoin:round;stroke-miterlimit:2;">
    <g transform="matrix(1.42857,0,0,1.42857,-8.57143,-8.57143)">
        <g id="CSS3">
            <path d="M32.34,6L30.1,31.2L20,34L9.9,31.2L7.66,6L32.34,6ZM13.22,22L13.65,26.86L20,28.65L26.33,26.9L27.73,11.15L12.25,11.15L12.53,14.24L24.34,14.24L24.06,17.41L12.81,17.41L13.08,20.5L23.8,20.5L23.44,24.5L20,25.44L16.55,24.51L16.32,22L13.22,22Z" style="fill-rule:nonzero;"/>
        </g>
    </g>
</svg>
